packages/kaspersky-hexa-ui-icons/src/iconsSVGs/48/BrowserConfiguration.svg

<svg width="48" height="48" viewBox="0 0 48 48" fill="none" xmlns="http://www.w3.org/2000/svg">
<path fill-rule="evenodd" clip-rule="evenodd" d="M0 3V45H48V3H0ZM46 7H44V5H46V7ZM42 5V7H2V5H42ZM2 43V9H46V43H2ZM24 23C21.7909 23 20 24.7909 20 27C20 29.2091 21.7909 31 24 31C26.2091 31 28 29.2091 28 27C28 24.7909 26.2091 23 24 23ZM24 29C22.8954 29 22 28.1046 22 27C22 25.8954 22.8954 25 24 25C25.1046 25 26 25.8954 26 27C26 28.1046 25.1046 29 24 29ZM32.7 23.06L34.15 20.18L30.82 16.85L27.94 18.3L27.37 18.06L26.37 15H21.67L20.67 18.06L20.1 18.3L17.22 16.85L13.89 20.18L15.34 23.06C15.2533 23.2533 15.1733 23.4433 15.1 23.63L12.04 24.63V29.33L15.1 30.33C15.1733 30.5167 15.2533 30.7067 15.34 30.9L13.89 33.78L17.22 37.11L20.1 35.66L20.67 35.9L21.67 38.96H26.37L27.37 35.9L27.94 35.66L30.82 37.11L34.15 33.78L32.7 30.94C32.7867 30.7467 32.8667 30.5567 32.94 30.37L36 29.37V24.67L32.94 23.67C32.8667 23.4567 32.7867 23.2533 32.7 23.06ZM34 27.91L31.36 28.79L31.21 29.27C31.0761 29.6876 30.9054 30.0925 30.7 30.48L30.47 30.93L31.71 33.43L30.43 34.71L27.93 33.47L27.48 33.7C27.0925 33.9054 26.6876 34.0761 26.27 34.21L25.79 34.36L24.91 37H23.09L22.21 34.36L21.73 34.21C21.3124 34.0761 20.9075 33.9054 20.52 33.7L20.07 33.47L17.57 34.71L16.29 33.43L17.53 30.93L17.3 30.48C17.0946 30.0925 16.9239 29.6876 16.79 29.27L16.64 28.79L14 27.91V26.09L16.64 25.21L16.79 24.73C16.9239 24.3124 17.0946 23.9075 17.3 23.52L17.53 23.07L16.29 20.57L17.57 19.29L20.07 20.53L20.52 20.3C20.9075 20.0946 21.3124 19.9239 21.73 19.79L22.21 19.64L23.09 17H24.91L25.79 19.64L26.27 19.79C26.6876 19.9239 27.0925 20.0946 27.48 20.3L27.93 20.53L30.43 19.29L31.71 20.57L30.47 23.07L30.7 23.52C30.9054 23.9075 31.0761 24.3124 31.21 24.73L31.36 25.21L34 26.09V27.91Z"  fill="currentColor"/>
</svg>

<svg xmlns="http://www.w3.org/2000/svg" width="48" height="48" fill="none" viewBox="0 0 48 48"><path fill="currentColor" fill-rule="evenodd" d="M0 3v42h48V3zm46 4h-2V5h2zm-4-2v2H2V5zM2 43V9h44v34zm22-20c-2.2091 0-4 1.7909-4 4s1.7909 4 4 4 4-1.7909 4-4-1.7909-4-4-4m0 6c-1.1046 0-2-.8954-2-2s.8954-2 2-2 2 .8954 2 2-.8954 2-2 2m8.7-5.94 1.45-2.88-3.33-3.33-2.88 1.45-.57-.24-1-3.06h-4.7l-1 3.06-.57.24-2.88-1.45-3.33 3.33 1.45 2.88a13 13 0 0 0-.24.57l-3.06 1v4.7l3.06 1q.11.28.24.57l-1.45 2.88 3.33 3.33 2.88-1.45.57.24 1 3.06h4.7l1-3.06.57-.24 2.88 1.45 3.33-3.33-1.45-2.84q.13-.29.24-.57l3.06-1v-4.7l-3.06-1a7.2 7.2 0 0 0-.24-.61m1.3 4.85-2.64.88-.15.48a7.4 7.4 0 0 1-.51 1.21l-.23.45 1.24 2.5-1.28 1.28-2.5-1.24-.45.23a7.4 7.4 0 0 1-1.21.51l-.48.15-.88 2.64h-1.82l-.88-2.64-.48-.15a7.4 7.4 0 0 1-1.21-.51l-.45-.23-2.5 1.24-1.28-1.28 1.24-2.5-.23-.45a7.4 7.4 0 0 1-.51-1.21l-.15-.48-2.64-.88v-1.82l2.64-.88.15-.48a7.4 7.4 0 0 1 .51-1.21l.23-.45-1.24-2.5 1.28-1.28 2.5 1.24.45-.23a7.4 7.4 0 0 1 1.21-.51l.48-.15.88-2.64h1.82l.88 2.64.48.15a7.4 7.4 0 0 1 1.21.51l.45.23 2.5-1.24 1.28 1.28-1.24 2.5.23.45a7.4 7.4 0 0 1 .51 1.21l.15.48 2.64.88z" clip-rule="evenodd"/></svg>
